kora/panel/16/onboard-panel.svg

<svg xmlns="http://www.w3.org/2000/svg" width="16" height="16" version="1.1">
 <defs>
  <style id="current-color-scheme" type="text/css">
   .ColorScheme-Text { color:#dfdfdf; } .ColorScheme-Highlight { color:#4285f4; }
  </style>
 </defs>
 <path style="fill:currentColor" class="ColorScheme-Text" d="M 3,1.002 C 1.892,1.002 1,1.894 1,3.002 V 13.002 C 1,14.11 1.892,15.002 3,15.002 H 13 C 14.108,15.002 15,14.11 15,13.002 V 3.002 C 15,1.894 14.108,1.002 13,1.002 Z M 5.4961,2.9688 C 6.2759,2.9688 6.8862,3.1924 7.328,3.6387 7.77,4.0849 7.99,4.7 7.99,5.4863 7.99,6.2705 7.77,6.8858 7.328,7.332 6.8862,7.778 6.2759,8.002 5.4961,8.002 4.7184,8.002 4.1062,7.778 3.6621,7.332 3.2202,6.8858 3,6.2705 3,5.4863 3,4.7 3.2202,4.0849 3.6621,3.6387 4.1062,3.1924 4.7184,2.9688 5.4961,2.9688 Z M 5.4961,3.875 C 5.1148,3.875 4.8195,4.0153 4.6094,4.2969 4.3992,4.5785 4.293,4.9751 4.293,5.4863 4.293,5.9954 4.3992,6.3922 4.6094,6.6738 4.8195,6.9554 5.1148,7.096 5.4961,7.096 5.8795,7.096 6.1766,6.9554 6.3867,6.6738 6.5968,6.3922 6.7012,5.9954 6.7012,5.4863 6.7012,4.9751 6.5968,4.5785 6.3867,4.2969 6.1766,4.0153 5.8795,3.875 5.4961,3.875 Z M 9.064,7.15 H 10.943 C 11.617,7.15 12.103,7.251 12.404,7.455 12.708,7.659 12.859,7.985 12.859,8.434 12.859,8.67 12.804,8.872 12.693,9.039 12.583,9.204 12.423,9.326 12.213,9.406 12.482,9.484 12.691,9.628 12.838,9.838 12.985,10.048 13.059,10.306 13.059,10.611 13.059,11.079 12.9,11.429 12.584,11.658 12.268,11.888 11.786,12.002 11.141,12.002 H 9.064 Z M 10.316,8.002 V 9.029 H 11.008 C 11.205,9.029 11.353,8.985 11.455,8.898 11.557,8.812 11.609,8.685 11.609,8.516 11.609,8.349 11.557,8.221 11.455,8.135 11.353,8.046 11.205,8.002 11.008,8.002 Z M 10.314,9.881 V 11.15 H 11.049 C 11.3,11.15 11.49,11.098 11.615,10.992 11.743,10.886 11.807,10.724 11.807,10.51 11.807,10.3 11.745,10.143 11.619,10.039 11.493,9.933 11.302,9.881 11.049,9.881 Z"/>
</svg>

<svg xmlns="http://www.w3.org/2000/svg" width="16" height="16" viewBox="0 0 16 16">
 <defs>
  <style id="current-color-scheme" type="text/css">
   .ColorScheme-Text { color:#dfdfdf; } .ColorScheme-Highlight { color:#4285f4; } .ColorScheme-NeutralText { color:#ff9800; } .ColorScheme-PositiveText { color:#4caf50; } .ColorScheme-NegativeText { color:#f44336; }
  </style>
 </defs> 
 <path style="opacity:0.3;fill:currentColor" class="ColorScheme-Text" d="m3 1.002c-1.108 0-2 .892-2 2v10c0 1.108.892 2 2 2h10c1.108 0 2-.892 2-2v-10c0-1.108-.892-2-2-2h-10z"/>
 <path style="fill:currentColor" class="ColorScheme-Text" d="m9.064 7.15h1.879c.674 0 1.16.101 1.461.305.304.204.455.53.455.979 0 .236-.055.438-.166.605-.11.165-.27.287-.48.367.269.078.478.222.625.432s.221.468.221.773c0 .468-.159.818-.475 1.047-.316.23-.798.344-1.443.344h-2.077zm1.25 2.731v1.269h.735c.251 0 .441-.052.566-.158.128-.106.192-.268.192-.482 0-.21-.062-.367-.188-.471-.126-.106-.317-.158-.57-.158zm.002-1.879v1.027h.692c.197 0 .345-.044.447-.131.102-.086.154-.213.154-.382 0-.167-.052-.295-.154-.381-.102-.089-.25-.133-.447-.133zm-4.82-5.033c.78 0 1.39.223 1.832.67.442.446.662 1.061.662 1.847 0 .785-.22 1.4-.662 1.846s-1.052.67-1.832.67c-.778 0-1.39-.224-1.834-.67-.442-.446-.662-1.061-.662-1.846 0-.786.22-1.401.662-1.847.444-.447 1.056-.67 1.834-.67zm0 .906c-.381 0-.677.14-.887.422s-.316.678-.316 1.189c0 .509.106.906.316 1.188.21.281.506.422.887.422.383 0 .681-.141.891-.422.21-.282.314-.679.314-1.188 0-.511-.104-.907-.314-1.189s-.508-.422-.891-.422z"/>
</svg>
